source/img/icon-cart--color.svg

<?xml version="1.0" encoding="UTF-8"?>
<svg width="21px" height="18px" viewBox="0 0 21 18" version="1.1" xmlns="http://www.w3.org/2000/svg" xmlns:xlink="http://www.w3.org/1999/xlink">
    <!-- Generator: Sketch 52.2 (67145) - http://www.bohemiancoding.com/sketch -->
    <title>icon-cart color</title>
    <desc>Created with Sketch.</desc>
    <g id="Styleguide" stroke="none" stroke-width="1" fill="none" fill-rule="evenodd">
        <g id="Mishka-Styleguide" transform="translate(-418.000000, -3323.000000)" fill="#63D1BB">
            <g id="icon-cart-color" transform="translate(418.000000, 3323.000000)">
                <path d="M20.2218773,6.90293947 L16.9614191,6.90293947 L13.436068,0.395592615 C13.2446415,0.0422438719 12.7800443,-0.101005619 12.395122,0.075668753 C12.0112343,0.253298121 11.8560237,0.683046593 12.0484848,1.03639534 L15.2261641,6.90293947 L5.77073171,6.90293947 L8.94944568,1.03639534 C9.14087214,0.682091596 8.98566149,0.252343125 8.60280857,0.075668753 C8.21995565,-0.101005619 7.75328899,0.0422438719 7.56186253,0.395592615 L4.03651146,6.90293947 L0.776053215,6.90293947 C0.34767184,6.90293947 0,7.22381833 0,7.61918692 C0,8.01455552 0.34767184,8.33543437 0.776053215,8.33543437 L0.938507021,8.33543437 L1.82320769,11.1918292 C1.62971175,11.3226637 1.4962306,11.523213 1.4962306,11.7600522 C1.4962306,12.1382308 1.81596452,12.4380998 2.21744272,12.4657947 L3.93096822,18 L17.0690318,18 L18.7825573,12.4657947 C19.1840355,12.4390548 19.5048041,12.1372759 19.5048041,11.7600522 C19.5048041,11.522258 19.371323,11.3217088 19.1778271,11.1908742 L20.061493,8.33447938 L20.2239468,8.33447938 C20.6523282,8.33447938 21,8.01360052 21,7.61823193 C21,7.22286333 20.6502587,6.90293947 20.2218773,6.90293947 Z M15.8956393,16.5684601 L5.10022173,16.5684601 L3.83370288,12.4772546 L17.1621582,12.4772546 L15.8956393,16.5684601 Z M17.6060606,11.0438047 L3.38980044,11.0438047 L2.55166297,8.33543437 L18.4441981,8.33543437 L17.6060606,11.0438047 Z" id="Shape"></path>
            </g>
        </g>
    </g>
</svg>

<svg height="18" viewBox="0 0 21 18" width="21" xmlns="http://www.w3.org/2000/svg"><path d="m20.2218773 6.90293947h-3.2604582l-3.5253511-6.50734685c-.1914265-.35334875-.6560237-.49659824-1.040946-.31992387-.3838877.17762937-.5390983.60737784-.3466372.96072659l3.1776793 5.86654413h-9.45543239l3.17871397-5.86654413c.19142646-.35430374.03621581-.78405221-.34663711-.96072659-.38285292-.17667437-.84951958-.03342488-1.04094604.31992387l-3.52535107 6.50734685h-3.26045824c-.42838138 0-.77605322.32087886-.77605322.71624745 0 .3953686.34767184.71624745.77605322.71624745h.1624538l.88470067 2.85639483c-.19349594.1308345-.32697709.3313838-.32697709.568223 0 .3781786.31973392.6780476.72121212.7057425l1.7135255 5.5342053h13.13806358l1.7135255-5.5342053c.4014782-.0267399.7222468-.3285188.7222468-.7057425 0-.2377942-.1334811-.4383434-.326977-.569178l.8836659-2.85639482h.1624538c.4283814 0 .7760532-.32087886.7760532-.71624745 0-.3953686-.3497413-.71529246-.7781227-.71529246zm-4.326238 9.66552063h-10.79541757l-1.26651885-4.0912055h13.32845532zm1.7104213-5.5246554h-14.21626016l-.83813747-2.70837033h15.89253513z" fill="#63d1bb" fill-rule="evenodd" transform=""/></svg>
